X:104
T:Paddy Lynn's Delight
M:4/4
L:1/8
K:ADor
eA A2 cBAG|EG G2 AGEG|eA A2 cBAB|cded eaag|
eA A2 cBAG|EG G2 AGEG|cdeg aged|ceBe A4 :|
c2 gc acgc|c2 eg aege|c2 gc acgc|d2 ed cAAB|
c2 gc acgc|c2 eg ageb|a[c'a]ba gedg|EAA^G A4 :|
